X:8
T:Melinny Gockinges
Z:hn-slid-1.
M:6/8
K:G
c|AGF GEE|GAB DED|1 A3 GAG:|2 GFE E2D ||
<end>
<st


*****************************


19000 1 1.0493361 

<start>
M:C|
K:D
EED GBd|fed cAG|D3 EDE|E2=c A2e|f2e ffe|f3 d2d|e2f gfe|d2e b2b|1 ed^^cd fed:|2 Bba geg||


*****************************


19100 1 1.0195475 

<start>
Sttors of Jhive
R:slide
S:Sulsoel Crpathins: Towney
R:slide
T:Kevin & Listy's
T:Jigh to "\'e Han 


*****************************


19200 1 1.3418971 

<start>
astairtolland poun to the bathest am of the #os aude, The
T:Frory's On82.
H:A ix the Routassan, S


*****************************


19300 1 1.0174915 

<start>
